!! Stephen C. Foster, "Gentle Lena Clare"
!! from 'Stephen Foster Song Book' Dover Publications (New York) pp. 38-40
!! NOTE:  Leading and trailing bars of rest have been omitted.
**kern
*M2/4
*MM80
*C:
8c
=1
8c
8d
8e
8f
=2
8g
8ee
8.cc
16a
=3
8g
8e
8e
8c
=4
8e
8d
8d
16e
16d
=5
8c
8d
8e
8f
=6
8g
8ee
8.cc
16a
=7
8g
8e
8d
8e
=8
2c
=9
8ee
8ee
8dd
8ee
=10
4.cc
8cc
=11
8a
8f
8cc
8a
=12
4.g
8e
=13
8c
8d
8e
8f
=14
8g
8ee
8cc;
16r
16a
=15
8g
8e
8d
8e
=16
2c
=17
2r
=18
2r
=19
4.r
8c
=20
8c
8d
8e
8f
=21
8g
8ee
8.cc
16a
=22
8g
8e
8e
8c
=23
8e
8d
8d
16e
16d
=24
8c
8d
8e
8f
=25
8g
8ee
8.cc
16a
=26
8g
8e
8d
8e
=27
2c
=28
8ee
8ee
8dd
8ee
=29
4.cc
8cc
=30
8a
8f
8cc
8a
=31
4.g
8e
=32
8c
8d
8e
8f
=33
8g
8ee
8cc;
16r
16a
=34
8g
8e
8d
8e
=35
2c
==
*-
